X:1
T:Title
%%score { ( 1 3 ) | 2 }
L:1/8
Q:1/4=106
M:4/4
K:Db
V:1 treble nm="Grand Piano"
V:3 treble 
V:2 bass 
V:1
 F4 _F2 =F2 | G4 F4 | [CE]2 [C=D]2 [CE]2 [CF]2 | D6 z2 | C4 C2 D2 | [CE]4 [CE]4 | D2 C2 D2 E2 | %7
w: C.~Austin~Miles * *|||||||
 F6 z2 | F4 G2 F2 | [CE]4 [CE]4 | [CE]2 [CE]2 [CF]2 [CE]2 | D6 z2 | D4 D2 G2 | F4 D4 | %14
w: |||||||
 C2 C2 B,2 C2 | D6 z2 | A4 A2 A2 | A4 G4 | F4[K:bass] z4 | [DF]6 z2 | B4 d2 B2 | [FA]2 F2 E2 D2 | %22
w: ||||||||
 [DE]4 [DE]4 | [CE]6 z2 | [DF]4 [DF]2 [EG]2 | [FA]2 [F=G]2 [FA]4 | G4 G2 A2 | B2 =A2 B4 | %28
w: ||||||
 [Fd]4 [Ac]2 [GB]2 | [FA]2 [A,DF]2[K:bass] [F,D]2 [=G,DE]2 | [A,DF]4 [G,CF]2[K:bass] [G,CE]2 | %31
w: |||
 [F,D]6 z2 |] %32
w: |
V:2
 [D,A,D]4 [D,=G,D]2 [D,A,D]2 | [D,B,D]4 [D,A,D]4 | [A,,G,]2 [A,,F,]2 [A,,G,]2 [A,,A,]2 | %3
 [D,F,A,]6 z2 | [A,,E,A,]4 [A,,E,A,]2 [A,,F,A,]2 | [A,,G,]4 [A,,G,]4 | %6
 [D,F,A,]2 [D,E,A,]2 [D,F,A,]2 [D,G,A,]2 | [D,A,D]6 z2 | [D,A,D]4 [D,B,D]2 [D,A,D]2 | %9
 [A,,G,]4 [A,,G,]4 | [A,,G,]2 [A,,G,]2 [A,,A,]2 [A,,G,]2 | [D,F,]6 z2 | [G,B,]4 [G,B,]2 [G,=A,D]2 | %13
 [D,A,D]4 [D,F,]4 | [A,,G,A,]2 [A,,G,A,]2 [A,,G,A,]2 [A,,G,A,]2 | [D,F,A,]6 z2 | %16
 [DF]4 [DF]2 [DF]2 | [CE]4 [B,D]4 | [A,D]4 A,,2 A,,2 | D,2 F,2 B,2 z2 | [G,DG]4 [G,B,G]2 [G,DG]2 | %21
 [D,D]2 [D,A,D]2 [D,G,D]2 [D,F,]2 | [B,,=G,]4 [E,G,]4 | [A,,A,]6 z2 | [D,A,]4 [D,A,]2 [D,A,]2 | %25
 [D,D]2 [D,D]2 [D,D]4 | [G,B,]4 [G,B,]2 [G,CG]2 | [G,DG]2 [G,CG]2 [G,DG]4 | [D,D]4 [D,D]2 [D,D]2 | %29
 [D,D]2 D,2 D,2 B,,2 | A,,4 A,,2 A,,2 | D,6 z2 |] %32
V:3
 x8 | x8 | x8 | x8 | x8 | x8 | x8 | x8 | x8 | x8 | x8 | x8 | x8 | x8 | x8 | x8 | x8 | x8 | %18
 z2[K:bass] A,,2 [A,CE]4 | A,4 z2 A,2 | x8 | x8 | x8 | x8 | x8 | x8 | x8 | x8 | x8 | %29
 x4[K:bass] x4 | x6[K:bass] x2 | x8 |] %32

